X: 723
T: Aherne's Egg
R: jig
M: 6/8
K: Adorian
|:F2D DCA,|CDE D2A|d2e fed|cAF GFG|
AdB c2A|BGA FDE|=FCA, ^FAF|GE^C D3:|
K:D
|:dfa g2g|ece age|dfa g2g|cde d2d|
fga efg|cde EAc|cde dcA|GEA D3:|

